X:23
T:London Minuet. JClw.23
M:3/4
L:1/8
Q:1/4=160
S:J.Clews MS,Stoke-upon-Tern,Shrops.1832
A:N. Shropshire
Z:Neil Brookes 2006
K:F
A4G2|EFEFEF|c4B2|B2A4|D2B2G2|E2F4|GAB2A2|A2G4|!
A4G2|EFEFEF|c4B2|B2A4|D2B2G2|F2E2F2|dc/B/ A2TG2|F6::!
G4A2|B4A2|G2B2A2|A2G4|G4A2|B4A2|c2B2A2|A2G4|!
A4G2|EFEFEF|c4B2|B2A4|D2B2G2|F2E2F2|dc/B/ A2TG2|F6:|

